X: 1
T:The Train Journey North
M:C|
L:1/8
Q:80
C:T. Anderson
S:Hornpipe
K:HP
|: {g}A|
{Gdc}d{g}f3/4A/4{g}d3/4f/4{g}A3/4d/4|
{g}f3/4A/4{g}d3/4f/4{g}Ad/4{gfg}f3/4|  !
{gf}g{aef}e3/4c/4{g}A3/4{d}c/4{gef}e3/4A/4|
{d}c/4e3/4{g}A3/4{d}c/4{gef}e3/4A/4{g}f3/4e/4| |
{Gdc}d{g}f3/4A/4{g}d3/4f/4{g}A3/4d/4|  !
{g}f3/4A/4{g}d3/4f/4{g}Ad/4{gfg}f3/4|
{gf}g{aef}e3/4c/4{g}A3/4{d}c/4{gef}e3/4A/4|
{gcecG}c{g}e3/4g/4|1 {afg}f{dG}d|2 {afg}f3/4A/4{g}d3/4f/4:| |:  !
{ag}af3/4d/4{gAd}A{g}f3/4A/4|
{g}d3/4f/4a3/4f/4{a}g3/4f/4{g}e3/4f/4|
{gf}g{aef}e3/4c/4{gAd}A{gef}e3/4A/4|  !
{g}c/4e3/4{g}A3/4g/4{afg}f3/4A/4{g}d3/4f/4| |
{ag}af3/4d/4{gAd}A{g}f3/4A/4|
{g}d3/4f/4a3/4f/4{a}g3/4f/4{g}e3/4f/4|  !
{gf}g{aef}e3/4c/4{gAd}A3/4{d}c/4{gef}e3/4A/4|
{gcecG}c{g}e3/4g/4|1 {afg}f3/4A/4{g}d3/4f/4|2 {afg}f{dG}d:| |:
A|  !
{Gdc}d{g}f3/4A/4{g}d3/4f/4{g}A3/4d/4|
{gdedG}d{g}f3/4A/4{g}d3/4f/4{g}A3/4d/4|
{gcd}c{gef}e3/4A/4{gcecG}c{gef}e3/4A/4|  !
{gdedG}d{g}f3/4A/4{gdedG}d{g}f3/4A/4| |
{Gdc}d{g}f3/4A/4{g}d3/4f/4{g}A3/4d/4|
{gdedG}d{g}f3/4A/4{g}d3/4f/4{g}A3/4d/4|  !
{gcd}c{g}e3/4f/4{gf}g{aef}e3/4A/4|
{gcecG}c{g}e3/4g/4|1 {afg}f{dG}d|2 {afg}f3/4A/4{g}d3/4f/4:| |:
{ag}af3/4d/4{gdedG}da3/4f/4|  !
{a}g3/4f/4{g}e3/4d/4{g}c3/4d/4{g}e3/4f/4|
{gf}g{aef}e3/4c/4{gcecG}c{gef}e3/4A/4|
{gdedG}d{g}f3/4g/4{ag}af/2g/2| |  !
{ag}af3/4d/4{gdedG}da3/4f/4|
{a}g3/4f/4{g}e3/4d/4{g}c3/4d/4{g}e3/4f/4|
{gf}g{aef}e3/4c/4{g}A3/4{d}c/4{gef}e3/4A/4|  !
{gcecG}c{g}e3/4g/4|1 {afg}f3/4A/4{g}d3/4f/4|2 {afg}f{dG}d:|
